app/img/icons/servises-icon-4-mb.svg

<svg width="44" height="44" viewBox="0 0 44 44" fill="none" xmlns="http://www.w3.org/2000/svg">
<path d="M29 40H15V44H29V40Z" fill="black"/>
<path d="M29 40H15V44H29V40Z" fill="url(#paint0_linear)"/>
<path d="M9.72118 0.0962299L0 10.0017L2.55821 12.6084L12.2794 2.70294L9.72118 0.0962299Z" fill="black"/>
<path d="M9.72118 0.0962299L0 10.0017L2.55821 12.6084L12.2794 2.70294L9.72118 0.0962299Z" fill="url(#paint1_linear)"/>
<path d="M34.2789 -3.18716e-06L31.7207 2.60669L41.4419 12.5122L44.0001 9.90549L34.2789 -3.18716e-06Z" fill="black"/>
<path d="M34.2789 -3.18716e-06L31.7207 2.60669L41.4419 12.5122L44.0001 9.90549L34.2789 -3.18716e-06Z" fill="url(#paint2_linear)"/>
<path d="M31.0288 5.30853L29.0713 5.22214C28.5069 5.13919 27.9316 5.19395 27.391 5.38209C26.8504 5.57024 26.3591 5.88662 25.9561 6.30628L21.9525 10.4746L17.7678 6.11766C17.4045 5.74805 16.9512 5.48864 16.4568 5.36736C15.9624 5.24607 15.4455 5.2675 14.9619 5.42935C14.5057 5.5738 14.0204 5.58648 13.5578 5.46601C13.0952 5.34555 12.6727 5.09648 12.3355 4.74542L11.7145 4.09881L4 12.1308L5.25682 13.4394L5.17385 15.4773C5.09417 16.065 5.14676 16.6639 5.32746 17.2268C5.50817 17.7897 5.81203 18.3012 6.21509 18.7208L13.2065 26C13.2999 25.0445 13.7396 24.1619 14.4361 23.5321L12.2578 21.2642L12.7721 20.7287L15.0474 23.0976C15.3699 22.9065 15.7188 22.7684 16.0819 22.6883V19.891L14.8293 18.5868L15.3436 18.0513L16.0819 18.82V14.7688C16.0738 14.0991 16.302 13.4497 16.7234 12.9437C17.1447 12.4377 17.7298 12.1103 18.3676 12.0237C18.6081 11.9994 18.8507 12.0108 19.0882 12.0576L18.1939 11.1265L18.7083 10.5911L20.0146 11.9512C20.246 11.4845 20.604 11.0987 21.044 10.8419C21.484 10.585 21.9868 10.4683 22.49 10.5062C23.0973 10.58 23.6605 10.8727 24.0823 11.3336C24.504 11.7944 24.7576 12.3943 24.7991 13.0294C25.2125 12.8248 25.6706 12.7381 26.1266 12.778C26.7748 12.8587 27.371 13.1873 27.7996 13.6998C28.2282 14.2124 28.4587 14.8724 28.4464 15.5519V18.1447C29.1083 18.2886 29.7186 18.6217 30.2089 19.1066C30.6992 19.5915 31.05 20.209 31.222 20.8899L33.2501 18.7782L33.7644 19.3137L31.3531 21.8243C31.3532 21.8347 31.3557 21.8444 31.3557 21.8548V24.369C32.0092 24.2978 32.6196 23.9963 33.086 23.5144L38.061 18.3346C38.416 17.9563 38.6651 17.4844 38.7816 16.9696C38.8981 16.4548 38.8775 15.9167 38.722 15.4132C38.5833 14.9382 38.5711 14.4329 38.6868 13.9512C38.8025 13.4696 39.0418 13.0297 39.379 12.6787L40 12.032L32.2856 4L31.0288 5.30853Z" fill="black"/>
<path d="M31.0288 5.30853L29.0713 5.22214C28.5069 5.13919 27.9316 5.19395 27.391 5.38209C26.8504 5.57024 26.3591 5.88662 25.9561 6.30628L21.9525 10.4746L17.7678 6.11766C17.4045 5.74805 16.9512 5.48864 16.4568 5.36736C15.9624 5.24607 15.4455 5.2675 14.9619 5.42935C14.5057 5.5738 14.0204 5.58648 13.5578 5.46601C13.0952 5.34555 12.6727 5.09648 12.3355 4.74542L11.7145 4.09881L4 12.1308L5.25682 13.4394L5.17385 15.4773C5.09417 16.065 5.14676 16.6639 5.32746 17.2268C5.50817 17.7897 5.81203 18.3012 6.21509 18.7208L13.2065 26C13.2999 25.0445 13.7396 24.1619 14.4361 23.5321L12.2578 21.2642L12.7721 20.7287L15.0474 23.0976C15.3699 22.9065 15.7188 22.7684 16.0819 22.6883V19.891L14.8293 18.5868L15.3436 18.0513L16.0819 18.82V14.7688C16.0738 14.0991 16.302 13.4497 16.7234 12.9437C17.1447 12.4377 17.7298 12.1103 18.3676 12.0237C18.6081 11.9994 18.8507 12.0108 19.0882 12.0576L18.1939 11.1265L18.7083 10.5911L20.0146 11.9512C20.246 11.4845 20.604 11.0987 21.044 10.8419C21.484 10.585 21.9868 10.4683 22.49 10.5062C23.0973 10.58 23.6605 10.8727 24.0823 11.3336C24.504 11.7944 24.7576 12.3943 24.7991 13.0294C25.2125 12.8248 25.6706 12.7381 26.1266 12.778C26.7748 12.8587 27.371 13.1873 27.7996 13.6998C28.2282 14.2124 28.4587 14.8724 28.4464 15.5519V18.1447C29.1083 18.2886 29.7186 18.6217 30.2089 19.1066C30.6992 19.5915 31.05 20.209 31.222 20.8899L33.2501 18.7782L33.7644 19.3137L31.3531 21.8243C31.3532 21.8347 31.3557 21.8444 31.3557 21.8548V24.369C32.0092 24.2978 32.6196 23.9963 33.086 23.5144L38.061 18.3346C38.416 17.9563 38.6651 17.4844 38.7816 16.9696C38.8981 16.4548 38.8775 15.9167 38.722 15.4132C38.5833 14.9382 38.5711 14.4329 38.6868 13.9512C38.8025 13.4696 39.0418 13.0297 39.379 12.6787L40 12.032L32.2856 4L31.0288 5.30853Z" fill="url(#paint3_linear)"/>
<path d="M20.6286 14.1421C20.5724 13.6563 20.3296 13.2123 19.9527 12.9061C19.5757 12.5999 19.0948 12.456 18.6138 12.5054C18.1473 12.5706 17.7207 12.8069 17.4152 13.1694C17.1096 13.532 16.9464 13.9955 16.9565 14.4718V22.9647C16.1724 22.9647 15.4204 23.2799 14.8659 23.8408C14.3115 24.4018 14 25.1626 14 25.9559V33.1896C14.006 33.7118 14.1527 34.2225 14.4243 34.6666C14.6958 35.1107 15.082 35.4715 15.5412 35.7101C15.9688 35.9408 16.3263 36.2848 16.5756 36.7053C16.8248 37.1257 16.9565 37.6067 16.9565 38.097V39H28.0435V37.1727L29.5097 35.8099C29.9725 35.4575 30.3481 35.0011 30.6067 34.4767C30.8654 33.9522 31 33.3742 31 32.7881V21.4691C31 20.6758 30.6885 19.915 30.1341 19.3541C29.5796 18.7931 28.8276 18.478 28.0435 18.478V15.2456C28.056 14.7616 27.8911 14.2901 27.5805 13.9218C27.2699 13.5535 26.8355 13.3145 26.3611 13.2508C25.8955 13.2092 25.4317 13.3482 25.0635 13.6397C24.6954 13.9311 24.4506 14.3532 24.3786 14.8205H24.7174V26.3688H23.9783V14.8205H24.3478V13.0023C24.3604 12.5183 24.1955 12.0467 23.8849 11.6784C23.5742 11.3101 23.1399 11.0711 22.6655 11.0075C22.4099 10.9843 22.1523 11.0152 21.9092 11.0982C21.6661 11.1812 21.4427 11.3146 21.2533 11.4898C21.0639 11.6649 20.9126 11.8781 20.8091 12.1157C20.7057 12.3532 20.6522 12.61 20.6522 12.8696V14.1421H21.0217V25.6904H20.2826V14.1421H20.6286ZM17.2516 29.36H16.5124V23.3777H17.2516V29.36ZM27.6739 18.7102H28.413V26.5196H27.6739V18.7102Z" fill="black"/>
<path d="M20.6286 14.1421C20.5724 13.6563 20.3296 13.2123 19.9527 12.9061C19.5757 12.5999 19.0948 12.456 18.6138 12.5054C18.1473 12.5706 17.7207 12.8069 17.4152 13.1694C17.1096 13.532 16.9464 13.9955 16.9565 14.4718V22.9647C16.1724 22.9647 15.4204 23.2799 14.8659 23.8408C14.3115 24.4018 14 25.1626 14 25.9559V33.1896C14.006 33.7118 14.1527 34.2225 14.4243 34.6666C14.6958 35.1107 15.082 35.4715 15.5412 35.7101C15.9688 35.9408 16.3263 36.2848 16.5756 36.7053C16.8248 37.1257 16.9565 37.6067 16.9565 38.097V39H28.0435V37.1727L29.5097 35.8099C29.9725 35.4575 30.3481 35.0011 30.6067 34.4767C30.8654 33.9522 31 33.3742 31 32.7881V21.4691C31 20.6758 30.6885 19.915 30.1341 19.3541C29.5796 18.7931 28.8276 18.478 28.0435 18.478V15.2456C28.056 14.7616 27.8911 14.2901 27.5805 13.9218C27.2699 13.5535 26.8355 13.3145 26.3611 13.2508C25.8955 13.2092 25.4317 13.3482 25.0635 13.6397C24.6954 13.9311 24.4506 14.3532 24.3786 14.8205H24.7174V26.3688H23.9783V14.8205H24.3478V13.0023C24.3604 12.5183 24.1955 12.0467 23.8849 11.6784C23.5742 11.3101 23.1399 11.0711 22.6655 11.0075C22.4099 10.9843 22.1523 11.0152 21.9092 11.0982C21.6661 11.1812 21.4427 11.3146 21.2533 11.4898C21.0639 11.6649 20.9126 11.8781 20.8091 12.1157C20.7057 12.3532 20.6522 12.61 20.6522 12.8696V14.1421H21.0217V25.6904H20.2826V14.1421H20.6286ZM17.2516 29.36H16.5124V23.3777H17.2516V29.36ZM27.6739 18.7102H28.413V26.5196H27.6739V18.7102Z" fill="url(#paint4_linear)"/>
<defs>
<linearGradient id="paint0_linear" x1="22" y1="40" x2="22" y2="44" gradientUnits="userSpaceOnUse">
<stop stop-color="#EF8080"/>
<stop offset="1" stop-color="#F0145A"/>
</linearGradient>
<linearGradient id="paint1_linear" x1="4.86059" y1="5.04897" x2="7.46684" y2="7.60673" gradientUnits="userSpaceOnUse">
<stop stop-color="#EF8080"/>
<stop offset="1" stop-color="#F0145A"/>
</linearGradient>
<linearGradient id="paint2_linear" x1="32.9998" y1="1.30334" x2="42.9035" y2="11.0228" gradientUnits="userSpaceOnUse">
<stop stop-color="#EF8080"/>
<stop offset="1" stop-color="#F0145A"/>
</linearGradient>
<linearGradient id="paint3_linear" x1="22" y1="4" x2="22" y2="26" gradientUnits="userSpaceOnUse">
<stop stop-color="#EF8080"/>
<stop offset="1" stop-color="#F0145A"/>
</linearGradient>
<linearGradient id="paint4_linear" x1="22.5" y1="11" x2="22.5" y2="39" gradientUnits="userSpaceOnUse">
<stop stop-color="#EF8080"/>
<stop offset="1" stop-color="#F0145A"/>
</linearGradient>
</defs>
</svg>

<svg xmlns="http://www.w3.org/2000/svg" xmlns:xlink="http://www.w3.org/1999/xlink" width="44" height="44" fill="none" xmlns:v="https://vecta.io/nano"><path d="M29 40H15v4h14v-4z" fill="#000"/><path d="M29 40H15v4h14v-4z" fill="url(#A)"/><path d="M9.721.096L0 10.002l2.558 2.607 9.721-9.905L9.721.096z" fill="#000"/><path d="M9.721.096L0 10.002l2.558 2.607 9.721-9.905L9.721.096z" fill="url(#B)"/><path d="M34.279 0l-2.558 2.607 9.721 9.906L44 9.905 34.279 0z" fill="#000"/><path d="M34.279 0l-2.558 2.607 9.721 9.906L44 9.905 34.279 0z" fill="url(#C)"/><use xlink:href="#F" fill="#000"/><use xlink:href="#F" fill="url(#D)"/><use xlink:href="#G" fill="#000"/><use xlink:href="#G" fill="url(#E)"/><defs><linearGradient id="A" x1="22" y1="40" x2="22" y2="44" xlink:href="#H"><stop stop-color="#ef8080"/><stop offset="1" stop-color="#f0145a"/></linearGradient><linearGradient id="B" x1="4.861" y1="5.049" x2="7.467" y2="7.607" xlink:href="#H"><stop stop-color="#ef8080"/><stop offset="1" stop-color="#f0145a"/></linearGradient><linearGradient id="C" x1="33" y1="1.303" x2="42.904" y2="11.023" xlink:href="#H"><stop stop-color="#ef8080"/><stop offset="1" stop-color="#f0145a"/></linearGradient><linearGradient id="D" x1="22" y1="4" x2="22" y2="26" xlink:href="#H"><stop stop-color="#ef8080"/><stop offset="1" stop-color="#f0145a"/></linearGradient><linearGradient id="E" x1="22.5" y1="11" x2="22.5" y2="39" xlink:href="#H"><stop stop-color="#ef8080"/><stop offset="1" stop-color="#f0145a"/></linearGradient><path id="F" d="M31.029 5.309l-1.957-.086a3.54 3.54 0 0 0-1.68.16 3.66 3.66 0 0 0-1.435.924l-4.004 4.168-4.185-4.357c-.363-.37-.817-.629-1.311-.75s-1.011-.1-1.495.062a2.53 2.53 0 0 1-1.404.037c-.463-.12-.885-.37-1.222-.721l-.621-.647L4 12.131l1.257 1.309-.083 2.038a3.98 3.98 0 0 0 .154 1.75c.181.563.485 1.074.888 1.494L13.207 26c.093-.956.533-1.838 1.23-2.468l-2.178-2.268.514-.535 2.275 2.369c.322-.191.671-.329 1.035-.409v-2.797l-1.253-1.304.514-.535.738.769v-4.051a2.8 2.8 0 0 1 .642-1.825c.421-.506 1.006-.833 1.644-.92a2.45 2.45 0 0 1 .721.034l-.894-.931.514-.535 1.306 1.36c.231-.467.589-.853 1.029-1.109s.943-.374 1.446-.336c.607.074 1.171.367 1.592.827a2.78 2.78 0 0 1 .717 1.696 2.5 2.5 0 0 1 1.328-.251c.648.081 1.244.409 1.673.922a2.81 2.81 0 0 1 .647 1.852v2.593c.662.144 1.272.477 1.762.962s.841 1.102 1.013 1.783l2.028-2.112.514.536-2.411 2.511c0 .01.003.02.003.03v2.514c.654-.071 1.264-.373 1.73-.855l4.975-5.18c.355-.378.604-.85.721-1.365a3.02 3.02 0 0 0-.06-1.556 2.85 2.85 0 0 1-.035-1.462 2.77 2.77 0 0 1 .692-1.273l.621-.647L32.286 4l-1.257 1.309z"/><path id="G" d="M20.629 14.142a1.87 1.87 0 0 0-.676-1.236c-.377-.306-.858-.45-1.339-.401-.466.065-.893.302-1.199.664s-.469.826-.459 1.302v8.493a2.94 2.94 0 0 0-2.091.876A3.01 3.01 0 0 0 14 25.956v7.234c.006.522.153 1.033.424 1.477a2.85 2.85 0 0 0 1.117 1.043c.428.231.785.575 1.034.995a2.73 2.73 0 0 1 .381 1.392V39h11.087v-1.827l1.466-1.363a3.77 3.77 0 0 0 1.097-1.333A3.82 3.82 0 0 0 31 32.788V21.469a3.01 3.01 0 0 0-.866-2.115 2.94 2.94 0 0 0-2.091-.876v-3.232c.012-.484-.152-.955-.463-1.324a1.93 1.93 0 0 0-1.219-.671c-.466-.042-.929.097-1.298.389a1.87 1.87 0 0 0-.685 1.181h.339v11.548h-.739V14.821h.369v-1.818c.013-.484-.152-.956-.463-1.324a1.93 1.93 0 0 0-1.219-.671 1.83 1.83 0 0 0-.756.091c-.243.083-.466.216-.656.392a1.87 1.87 0 0 0-.444.626 1.89 1.89 0 0 0-.157.754v1.272h.369V25.69h-.739V14.142h.346zM17.252 29.36h-.739v-5.982h.739v5.982zm10.422-10.65h.739v7.809h-.739V18.71z"/><linearGradient id="H" gradientUnits="userSpaceOnUse"/></defs></svg>
